assets/icons/qvision/cleaning_services.svg

<svg xmlns="http://www.w3.org/2000/svg" enable-background="new 0 0 24 24" height="24" viewBox="0 0 24 24" width="24"><g><rect fill="none" height="24" width="24"/></g><g><path d="M16,11h-1V3c0-1.1-0.9-2-2-2h-2C9.9,1,9,1.9,9,3v8H8c-2.76,0-5,2.24-5,5v7h18v-7C21,13.24,18.76,11,16,11z M19,21h-2v-3 c0-0.55-0.45-1-1-1s-1,0.45-1,1v3h-2v-3c0-0.55-0.45-1-1-1s-1,0.45-1,1v3H9v-3c0-0.55-0.45-1-1-1s-1,0.45-1,1v3H5v-5 c0-1.65,1.35-3,3-3h8c1.65,0,3,1.35,3,3V21z"/></g></svg>

<svg width="24" height="24" viewBox="0 0 24 24" fill="none" xmlns="http://www.w3.org/2000/svg">
<g clip-path="url(#clip0_147_5158)">
<path d="M16 11H15V3C15 1.9 14.1 1 13 1H11C9.9 1 9 1.9 9 3V11H8C5.24 11 3 13.24 3 16V23H21V16C21 13.24 18.76 11 16 11ZM19 21H17V18C17 17.45 16.55 17 16 17C15.45 17 15 17.45 15 18V21H13V18C13 17.45 12.55 17 12 17C11.45 17 11 17.45 11 18V21H9V18C9 17.45 8.55 17 8 17C7.45 17 7 17.45 7 18V21H5V16C5 14.35 6.35 13 8 13H16C17.65 13 19 14.35 19 16V21Z" fill="#323232"/>
</g>
<defs>
<clipPath id="clip0_147_5158">
<rect width="24" height="24" fill="white"/>
</clipPath>
</defs>
</svg>
